X: 2
T: The Dairy Maid
R: reel
M: 4/4
L: 1/8
K: Dmaj
AF~F2 AFBF|AFDE FE~E2|AF~F2 BFAF|EADE FDD2|AF~F2 AFBF|AFDE FEEF|~G3E F2AF|EADE FDD2||~d3f ~a3g|f2ef dB~B2|dcdf a2fa|bgeg fddA|dfaf g2ag|f2eg fBBA|GBdf gbag|faeg fedB||


Tune 1946	Setting 28456

